src/assets/fleet-icons/redeem-nft.svg

<svg width="20" height="20" viewBox="0 0 20 20" fill="none" xmlns="http://www.w3.org/2000/svg">
    <path
        d="M16.0413 5.83334C16.0413 6.75381 13.2213 7.70834 9.99967 7.70834C6.77801 7.70834 3.95801 6.75381 3.95801 5.83334C3.95801 4.91286 6.77801 3.95834 9.99967 3.95834C13.2213 3.95834 16.0413 4.91286 16.0413 5.83334Z"
        stroke="currentColor" stroke-linecap="round" stroke-linejoin="round" />
    <path d="M10.208 11.875C6.98635 11.875 3.95801 10.9205 3.95801 10" stroke="currentColor" stroke-linecap="round"
        stroke-linejoin="round" />
    <path d="M16.042 10.2083V5.83334" stroke="currentColor" stroke-linecap="round" stroke-linejoin="round" />
    <path d="M10.208 16.0417C6.98635 16.0417 3.95801 15.0871 3.95801 14.1667V5.83334" stroke="currentColor"
        stroke-linecap="round" stroke-linejoin="round" />
    <path d="M14.167 12.2917V16.0417" stroke="currentColor" stroke-linecap="round" stroke-linejoin="round" />
    <path d="M16.042 14.1667H12.292" stroke="currentColor" stroke-linecap="round" stroke-linejoin="round" />
</svg>

<svg width="20" height="20" fill="none" xmlns="http://www.w3.org/2000/svg">
    <path
        d="M16.041 5.833c0 .92-2.82 1.875-6.041 1.875-3.222 0-6.042-.954-6.042-1.875 0-.92 2.82-1.875 6.042-1.875 3.221 0 6.041.955 6.041 1.875Zm-5.833 6.042c-3.222 0-6.25-.954-6.25-1.875m12.084.208V5.833"
        stroke="currentColor" stroke-linecap="round" stroke-linejoin="round" />
    <path d="M10.208 16.042c-3.222 0-6.25-.955-6.25-1.875V5.833m10.209 6.459v3.75m1.875-1.875h-3.75"
        stroke="currentColor" stroke-linecap="round" stroke-linejoin="round" />
</svg>
